packages/core/src/svgs/aria20.svg

<svg width="24" height="24" viewBox="0 0 24 24" fill="none" xmlns="http://www.w3.org/2000/svg">
<g clip-path="url(#clip0_31_6071)">
<path d="M0 0H24V24H0V0Z" fill="#B99247"/>
<path d="M8.21143 8.78568C8.67 8.25425 9.38143 7.44426 11.2329 7.44426C13.0029 7.44426 13.2857 8.60568 13.2857 8.99997V9.13283C13.2943 9.58711 13.3029 10.3157 12.8014 10.5557C12.2614 10.8128 11.6014 10.9843 10.9243 11.1557C8.98286 11.6485 6.87857 12.1843 6.85714 15.0128C7.19656 14.9748 7.53998 15.0277 7.85229 15.1659C8.1646 15.3041 8.4346 15.5228 8.63467 15.7996C8.83475 16.0764 8.95774 16.4014 8.99105 16.7413C9.02437 17.0812 8.96682 17.4239 8.82429 17.7343C9.28286 17.9014 9.85286 18 10.5471 18C11.2114 18 12.57 17.6357 13.2857 16.2857C13.4143 16.8471 14.0057 18 15.4286 18C16.8514 18 17.7943 17.6143 18 17.4214V16.8514H17.58C17.2586 16.8471 16.2857 16.6243 16.2857 15.78V9.04283C16.2857 7.89854 15.9343 5.69997 12.4286 5.57568C11.4429 5.57568 9.42429 5.89711 7.71429 7.28997L8.03571 8.78997H8.21143V8.78568ZM13.2857 11.5714V14.3914C13.2429 15.0257 12.8571 16.2857 11.6443 16.2857C10.4314 16.2857 10.2386 15.12 10.2943 14.5371C10.2514 13.9671 10.4657 12.7157 11.6443 12.2571C12.2036 12.0589 12.7516 11.83 13.2857 11.5714ZM7.07143 18C7.35559 18 7.62811 17.8871 7.82904 17.6862C8.02997 17.4852 8.14286 17.2127 8.14286 16.9285C8.14286 16.6444 8.02997 16.3719 7.82904 16.1709C7.62811 15.97 7.35559 15.8571 7.07143 15.8571C6.78727 15.8571 6.51475 15.97 6.31381 16.1709C6.11288 16.3719 6 16.6444 6 16.9285C6 17.2127 6.11288 17.4852 6.31381 17.6862C6.51475 17.8871 6.78727 18 7.07143 18Z" fill="white"/>
</g>
<defs>
<clipPath id="clip0_31_6071">
<rect width="24" height="24" fill="white"/>
</clipPath>
</defs>
</svg>

<svg xmlns="http://www.w3.org/2000/svg" width="24" height="24" fill="none" viewBox="0 0 24 24"><g clip-path="url(#a)"><path fill="#B99247" d="M0 0h24v24H0z"/><path fill="#fff" d="M8.211 8.786c.459-.532 1.17-1.342 3.022-1.342 1.77 0 2.053 1.162 2.053 1.556v.133c.008.454.017 1.183-.485 1.423-.54.257-1.2.428-1.877.6-1.941.492-4.045 1.028-4.067 3.857a1.929 1.929 0 0 1 1.967 2.721c.459.167 1.029.266 1.723.266.664 0 2.023-.364 2.739-1.714.128.561.72 1.714 2.143 1.714s2.365-.386 2.571-.579v-.57h-.42c-.321-.004-1.294-.227-1.294-1.071V9.043c0-1.144-.352-3.343-3.857-3.467-.986 0-3.005.321-4.715 1.714l.322 1.5h.175zm5.075 2.785v2.82c-.043.635-.429 1.895-1.642 1.895s-1.405-1.166-1.35-1.749c-.043-.57.172-1.821 1.35-2.28a16 16 0 0 0 1.642-.686M7.07 18a1.072 1.072 0 1 0 0-2.143 1.072 1.072 0 0 0 0 2.143"/></g><defs><clipPath id="a"><path fill="#fff" d="M0 0h24v24H0z"/></clipPath></defs></svg>
